X:417
T:Sparrow's Reel
C:Kym Warner (Greencards, Rockygrass 7-31-05)
N:Transcribed by Steve Keating
R:bluegrass
L:1/8
Q:1/4=270
M:4/4
K:D
z6 Bc | 
K:C
"D"d2 dA "G"B^c dB | "D"AB A^F ED =F/^F/A | B^c dA B2 d2 | "A"d/e/e e^f e2 B^c | 
"D"d^c dA "G"Bc dB | "D"AB A^F ED EF | A^F ED "A"E2 EF | "D"E2 D2 (3DE^F (3AB^c | 
d2 dA "G"B^c dB | "D"A^F ED =F^F AF | AB dA d^f af | "A"ab d'a b^f aa | "D"a2 ea "G"^fA df | 
"D"ed ^fA fd ^FF | dA B^F "A"AF ED | "D"E^F D2 De ^fg | a^f ae ge g2 | ^fe dB Ad e=f | 
"C"gf ge "F"fe fe | "C"ed cA GA GA | "D"AG ^FE DF Ad | ^fg (3afe "G"g2 ed | "A"^cB Ac BA Bc | 
"D"d2 de d2 ^fg | a^f ae ge ge | ^fe dB Ad eg | (3"C"fgf eg "F"ae ae | "C"gd ec de gd | 
"D"dc A^G AG =G2 | GD EE "G"GA Bd | "A"ge ^fd ed B^c | "D"dB A^F A4 | z8 | z8 | 
z8 | 


